color/lkk.svg

<!-- Generated by IcoMoon.io -->
<svg version="1.1" xmlns="http://www.w3.org/2000/svg" width="32" height="32" viewBox="0 0 32 32">
<title>lkk</title>
<path fill="#9d01eb" d="M32 16c0 8.837-7.163 16-16 16s-16-7.163-16-16c0-8.837 7.163-16 16-16s16 7.163 16 16z"></path>
<path fill="#fff" d="M10.005 26v-3.656l5.995-6.104 5.976 6.105v3.655l-5.976-6.106-5.995 6.106zM5 13.633h8.469l2.531 2.607h-8.469l-2.531-2.607zM27 13.633l-2.531 2.606h-8.469v-11.239l2.531 2.586v6.047h8.469z"></path>
</svg>

<svg xmlns="http://www.w3.org/2000/svg" width="32" height="32"><g fill="none" fill-rule="evenodd"><circle cx="16" cy="16" r="16" fill="#9D01EB"/><path fill="#FFF" fill-rule="nonzero" d="M10.005 26v-3.656L16 16.24l5.976 6.105V26L16 19.894 10.005 26zM5 13.633h8.469L16 16.24H7.531L5 13.633zm22 0l-2.531 2.606H16V5l2.531 2.586v6.047H27z"/></g></svg>
